X: 2682
T: Banks Of Allan, The
R: jig
M: 6/8
K: Dmajor
DE|FGF FED|FAA A2 d|Bdd Add|Bdd Add|
FGF FED|FAA A2 d|BdB AFD|FEE E2:|
de|fgf fed|faa a2 g|fgf fed|gbb b2 a|
fga efg|def fed|BdB AFD|FEE E2:|
D|"tr" FGF FED|FA[AF] [A2F2] d|"tr" Bdd Add|Bdd Add|
"tr" FGF FED|FA[AF] [A2F2] d|"tr" Bcd AGF|FEE [E2A,2]||
d/e/|~fgf fed|fa[af] [a2f2]g|~fgf fed|gbb b2 g|
"tr" faa efg|{c]ded fed|"tr" Bcd AGF|FEE [E2A,2]||

